X: 9819
T: Denis Murphy's
R: slide
M: 12/8
K: Dmajor
|:B|A2_G =FED ^F2A A2e|f/=g/fe fed [A2e2]d BdB|
A2_G =FED ^F2A A2e|f{=g}f{e}f efe d3 [d2D2]:|
|:d|Ade f3 gfe f2f|g2e fed e2d BdB|
Ade f3 gfe f2f|a2f efe d3 [D2d2]:|

